app/dist/common/images/tg-therapeutics.svg

<svg height="18" width="18" xmlns="http://www.w3.org/2000/svg"><path d="m0 0h18v18h-18z" fill="#f0f3fa"/><path d="m8.5 2.45 1.5.85v1.7l-1.5.85-1.5-.85v-1.7zm-.5 8.55 2 1.16v2.33l-2 1.16-2-1.16v-2.33zm1-3.09 1.5-.85 1.5.85v1.69l-1.5.85-1.5-.85zm1.5-2 2.5 1.42v2.84l-2.5 1.42-2.5-1.42v-2.84z" fill="#9c3" fill-rule="evenodd"/></svg>

<!-- by TradingView --><svg xmlns="http://www.w3.org/2000/svg" width="18" height="18"><path fill="#F0F3FA" d="M0 0h18v18H0z"/><path fill-rule="evenodd" d="M8.5 2.45l1.5.85V5l-1.5.85L7 5V3.3l1.5-.85zM8 11l2 1.16v2.33l-2 1.16-2-1.16v-2.33L8 11zm1-3.09l1.5-.85 1.5.85V9.6l-1.5.85L9 9.6V7.91zm1.5-2L13 7.33v2.84l-2.5 1.42L8 10.17V7.33l2.5-1.42z" fill="#9C3"/></svg>
